!!!OTL: Verdacht.
!!!OTL-incipit: ES FLEUGT GAR MANCHES VOEGELEIN
!!!ARE: Europa, Mitteleuropa, Deutschland, Sachsen
!!!SCT: Z1195
!!!YEM: Copyright 1995, estate of Helmut Schaffrath.
**kern	**text
*ICvox	*
*M2/4	*
*k[f#]	*
*G:	*
!LO:TX:a:t=Aus Sachſen.	!
{8d	Es
=1	=1
8.g	fleugt
16f#	gar
8g	man-
8a	-ches
=2	=2
8.b/	Vö-
16a	-ge-
8b/	-lein
8b/	dem
=3	=3
8cc	an-
8b	-dern
8a	in
8g	das
=4	=4
4a	Neſt,
8r}	.
{8d	es
=5	=5
8.g	ißt
16f#	und
8g	trinkt
8a	gleich
=6	=6
8.b/	was
16a	es
8b/	find't,
8b/	da-
=7	=7
8cc	-ʒu
8b	das
8a	Al-
8g	-ler-
=8	=8
4a	-beſt'.
8r}	.
{8b/	Biſt
=9	=9
8.a	du
16b/	in's
8a	Neſt
8d	ge-
=10	=10
8.dL	-flo-
16eJ	.
8d	-gen,
8a	ſo
=11	=11
8.a	flieg'
16b/	auch
8a	wie-
8d	-der
=12	=12
8.dL	her-
16eJ	.
8d}	-aus;
{8d	ſo
=13	=13
8g	biſt
8g	du
8a	doch
8a	mein
=14	=14
8.b	Schatʒ
16cc	ge-
8dd	-weſt,
8cc	und
=15	=15
8b/	bleibſt
8b/	nun
8a	wiederum
8a	.
=16	=16
4g	aus.
8r}	.
==	==
!!!AGN: Liebes - Lied, verlassene Liebe
!!!ONB: ESAC (Essen Associative Code) Database: ZUCCAL
!!!AMT: simple duple
!!!AIN: vox
!!!EED: Helmut Schaffrath
!!!EEV: 1.0
!!!GTL: V. Lieder der Minne.
!!!URL-scan: https://www.digitale-sammlungen.de/de/view/bsb11160573?page=398
!!!ENC: Anna Maria Matuszewska
!!!EEV: 2025/02/05
*-	*-
